www/assets/icons/outdoor_grill.svg

<svg xmlns="http://www.w3.org/2000/svg" width="24" height="24" viewBox="0 0 24 24" fill='currentColor'><path d="M16.5 22c1.66 0 3-1.34 3-3s-1.34-3-3-3c-1.3 0-2.4.84-2.82 2H8.64l1.99-3.06a6.4 6.4 0 0 0 1.74 0l1.02 1.57c.42-.53.96-.95 1.6-1.21l-.6-.93A6.99 6.99 0 0 0 18.5 8h-14c0 2.84 1.69 5.27 4.12 6.37l-3.95 6.08a1 1 0 0 0 .29 1.38 1 1 0 0 0 1.38-.29l1-1.55h6.34C14.1 21.16 15.2 22 16.5 22m0-4c.55 0 1 .45 1 1s-.45 1-1 1-1-.45-1-1 .45-1 1-1M8.91 7h1c.15-1.15.23-1.64-.89-2.96-.42-.5-.68-.77-.46-2.04h-.99c-.21 1.11.03 2.05.89 2.96.22.24.79.67.45 2.04m2.48 0h1c.15-1.15.23-1.64-.89-2.96-.42-.5-.68-.78-.46-2.04h-.99c-.21 1.11.03 2.05.89 2.96.23.24.8.67.45 2.04m2.52 0h1c.15-1.15.23-1.64-.89-2.96-.42-.5-.68-.77-.46-2.04h-.99c-.21 1.11.03 2.05.89 2.96.22.24.79.67.45 2.04"/></svg>

<svg width="24" height="24" viewBox="0 0 24 24" xmlns="http://www.w3.org/2000/svg" fill='currentColor'><path d="M16.5 22C18.16 22 19.5 20.66 19.5 19C19.5 17.34 18.16 16 16.5 16C15.2 16 14.1 16.84 13.68 18H8.64L10.63 14.94C10.92 14.98 11.21 15 11.5 15C11.79 15 12.08 14.98 12.37 14.94L13.39 16.51C13.81 15.98 14.35 15.56 14.99 15.3L14.39 14.37C16.81 13.27 18.5 10.84 18.5 8H4.5C4.5 10.84 6.19 13.27 8.62 14.37L4.67 20.45C4.37 20.91 4.5 21.53 4.96 21.83C5.42 22.13 6.04 22 6.34 21.54L7.34 19.99H13.68C14.1 21.16 15.2 22 16.5 22ZM16.5 18C17.05 18 17.5 18.45 17.5 19C17.5 19.55 17.05 20 16.5 20C15.95 20 15.5 19.55 15.5 19C15.5 18.45 15.95 18 16.5 18Z"/><path d="M8.91 7H9.91C10.06 5.85 10.14 5.36 9.02 4.04C8.6 3.54 8.34 3.27 8.56 2H7.57C7.36 3.11 7.6 4.05 8.46 4.96C8.68 5.2 9.25 5.63 8.91 7Z"/><path d="M11.39 7H12.39C12.54 5.85 12.62 5.36 11.5 4.04C11.08 3.54 10.82 3.26 11.04 2H10.05C9.84 3.11 10.08 4.05 10.94 4.96C11.17 5.2 11.74 5.63 11.39 7Z"/><path d="M13.91 7H14.91C15.06 5.85 15.14 5.36 14.02 4.04C13.6 3.54 13.34 3.27 13.56 2H12.57C12.36 3.11 12.6 4.05 13.46 4.96C13.68 5.2 14.25 5.63 13.91 7Z"/></svg>
